public/svg/gitlab.svg

<svg width="101" height="93" viewBox="0 0 101 93" fill="none" xmlns="http://www.w3.org/2000/svg">
<path d="M50.3807 92.3557L68.7936 35.687H31.9674L50.3803 92.3557H50.3807Z" fill="#E24329"/>
<path d="M50.3807 92.3554L31.9674 35.6865H6.16257L50.3807 92.3554Z" fill="#FC6D26"/>
<path d="M6.16255 35.6865L0.567229 52.908C0.318444 53.6736 0.31841 54.4983 0.567131 55.2639C0.815853 56.0295 1.30056 56.6968 1.95179 57.17L50.3806 92.3557L6.16216 35.6869L6.16255 35.6865Z" fill="#FCA326"/>
<path d="M6.16257 35.6867H31.9674L20.878 1.55537C20.3073 -0.200943 17.8227 -0.200552 17.2524 1.55537L6.16257 35.6867Z" fill="#E24329"/>
<path d="M50.3807 92.3554L68.7936 35.6865H94.5989L50.3803 92.3554H50.3807Z" fill="#FC6D26"/>
<path d="M94.5988 35.6865L100.194 52.908C100.443 53.6736 100.443 54.4984 100.194 55.264C99.9452 56.0296 99.4604 56.6968 98.8091 57.17L50.3807 92.3557L94.5988 35.6869V35.6865Z" fill="#FCA326"/>
<path d="M94.5989 35.6867H68.7936L79.8834 1.55537C80.4542 -0.200943 82.9387 -0.200552 83.509 1.55537L94.5989 35.6867Z" fill="#E24329"/>
</svg>

<svg width="101" height="93" viewBox="0 0 101 93" fill="none" xmlns="http://www.w3.org/2000/svg"><path d="m50.38 92.356 18.414-56.669H31.967L50.38 92.356z" fill="#E24329"/><path d="M50.38 92.355 31.968 35.686H6.163l44.218 56.67z" fill="#FC6D26"/><path d="M6.163 35.687.567 52.907a3.812 3.812 0 0 0 1.385 4.262L50.38 92.356 6.162 35.686z" fill="#FCA326"/><path d="M6.163 35.687h25.804L20.878 1.555c-.57-1.756-3.055-1.756-3.626 0L6.162 35.687z" fill="#E24329"/><path d="m50.38 92.355 18.414-56.669h25.805L50.38 92.357z" fill="#FC6D26"/><path d="m94.599 35.687 5.595 17.221a3.809 3.809 0 0 1-1.385 4.262L50.381 92.356l44.218-56.67z" fill="#FCA326"/><path d="M94.599 35.687H68.794l11.09-34.132c.57-1.756 3.055-1.756 3.625 0l11.09 34.132z" fill="#E24329"/></svg>
